X: 85
T: Ceresnicky
Z: Deborah Jones
O: Czechoslovakia
F: http://www.youtube.com/watch?v=tFnel8E5oLQ
M: 4/4
L: 1/4
Q: 1/4=160
K: C
%%MIDI program 66
%%MIDI chordprog 68
%%MIDI bassprog 25
%%MIDI bassvol 85
%%MIDI chordvol 90
|:"C"[DG][DF][CE][DF]| [EG][DF][CE][DF]    |[E2G2]"F"[F2A2]     |"C"[E2G2] z2     |
  [Ec][EB][FA][EG]   |[FA][EG][DF][CE]     |"G7"[D2F2]"C"[C2E2] |"G" [B,2D2] z2   :|
|:"G" [B2d2][B2d2]   |[B2d2][B2d2]         |"G7"[Bd][Ac][GB][FA]|\
  "C" [E2G2] z2      |[EG][EA][EB][Ec]     |
  [E2c2][C2E2]       |"G7"[EG][DF][CE][B,D]|[1 [G,2C2] z2       :|[2 [G,C]z[CEGc]z|



